src/basic/800/u27F6-longarrow.svg

<svg width="35" height="16" viewBox="0 0 35 16" fill="none" xmlns="http://www.w3.org/2000/svg">
<path fill-rule="evenodd" clip-rule="evenodd" d="M32.2929,9.00001h-32.2929v-1h32.2929l-5.1465,-5.14645l0.7072,-0.70711l6,6l0.3535,0.35356l-0.3535,0.35355l-6,6.00004l-0.7072,-0.7071z" fill="black"/>
</svg>

<svg width="35" height="16" viewBox="0 0 35 16" fill="none" xmlns="http://www.w3.org/2000/svg">
<path fill-rule="evenodd" clip-rule="evenodd" d="M32.2929 9.00001H0V8.00001H32.2929L27.1464 2.85356L27.8536 2.14645L33.8536 8.14645L34.2071 8.50001L33.8536 8.85356L27.8536 14.8536L27.1464 14.1465L32.2929 9.00001Z" fill="black"/>
</svg>
